apps/manager/public/logo-dark.svg

<svg width="388" height="126" viewBox="0 0 388 126" fill="none" xmlns="http://www.w3.org/2000/svg">
<path fill-rule="evenodd" clip-rule="evenodd" d="M22.5676 23.9595C18.9404 23.9595 16 26.8999 16 30.527V98.3919C16 100.407 17.6336 102.041 19.6487 102.041H107.216C109.231 102.041 110.865 100.407 110.865 98.3919V30.527C110.865 26.8999 107.924 23.9595 104.297 23.9595H22.5676ZM94.4461 30.527C89.4084 30.527 85.3245 34.6109 85.3245 39.6487C85.3245 44.6864 89.4084 48.7703 94.4461 48.7703H95.1758C100.214 48.7703 104.297 44.6864 104.297 39.6487C104.297 34.6109 100.214 30.527 95.1758 30.527H94.4461Z" fill="#999999"/>
<mask id="mask0_1_24" style="mask-type:alpha" maskUnits="userSpaceOnUse" x="16" y="23" width="95" height="80">
<path fill-rule="evenodd" clip-rule="evenodd" d="M22.5676 23.9595C18.9404 23.9595 16 26.8999 16 30.527V98.3919C16 100.407 17.6336 102.041 19.6487 102.041H107.216C109.231 102.041 110.865 100.407 110.865 98.3919V30.527C110.865 26.8999 107.924 23.9595 104.297 23.9595H22.5676ZM94.4461 30.527C89.4084 30.527 85.3245 34.6109 85.3245 39.6487C85.3245 44.6864 89.4084 48.7703 94.4461 48.7703H95.1758C100.214 48.7703 104.297 44.6864 104.297 39.6487C104.297 34.6109 100.214 30.527 95.1758 30.527H94.4461Z" fill="white"/>
</mask>
<g mask="url(#mask0_1_24)">
<path d="M16.0002 60.4459C16.0002 58.4309 17.6337 56.7973 19.6488 56.7973H107.216C109.231 56.7973 110.865 58.4309 110.865 60.4459V98.3919C110.865 100.407 109.231 102.041 107.216 102.041H19.6488C17.6337 102.041 16.0002 100.407 16.0002 98.3919V60.4459Z" fill="#CBCBCB"/>
<path fill-rule="evenodd" clip-rule="evenodd" d="M19.6488 53.8784H107.216C110.844 53.8784 113.784 56.8188 113.784 60.4459V98.3919C113.784 102.019 110.844 104.959 107.216 104.959H19.6488C16.0217 104.959 13.0813 102.019 13.0813 98.3919V60.4459C13.0813 56.8188 16.0217 53.8784 19.6488 53.8784ZM19.6488 56.7973C17.6337 56.7973 16.0002 58.4309 16.0002 60.4459V98.3919C16.0002 100.407 17.6337 102.041 19.6488 102.041H107.216C109.231 102.041 110.865 100.407 110.865 98.3919V60.4459C110.865 58.4309 109.231 56.7973 107.216 56.7973H19.6488Z" fill="#999999"/>
<path d="M16.0002 75.7703C16.0002 73.7552 17.6337 72.1216 19.6488 72.1216H107.216C109.231 72.1216 110.865 73.7552 110.865 75.7703V98.3919C110.865 100.407 109.231 102.041 107.216 102.041H19.6488C17.6337 102.041 16.0002 100.407 16.0002 98.3919V75.7703Z" fill="#DDDDDD"/>
<path fill-rule="evenodd" clip-rule="evenodd" d="M19.6488 69.2027H107.216C110.844 69.2027 113.784 72.1431 113.784 75.7703V98.3919C113.784 102.019 110.844 104.959 107.216 104.959H19.6488C16.0217 104.959 13.0813 102.019 13.0813 98.3919V75.7703C13.0813 72.1431 16.0217 69.2027 19.6488 69.2027ZM19.6488 72.1216C17.6337 72.1216 16.0002 73.7552 16.0002 75.7703V98.3919C16.0002 100.407 17.6337 102.041 19.6488 102.041H107.216C109.231 102.041 110.865 100.407 110.865 98.3919V75.7703C110.865 73.7552 109.231 72.1216 107.216 72.1216H19.6488Z" fill="#999999"/>
<path d="M16.0002 91.0946C16.0002 89.0795 17.6337 87.4459 19.6488 87.4459H107.216C109.231 87.4459 110.865 89.0795 110.865 91.0946V98.3919C110.865 100.407 109.231 102.041 107.216 102.041H19.6488C17.6337 102.041 16.0002 100.407 16.0002 98.3919V91.0946Z" fill="white"/>
<path fill-rule="evenodd" clip-rule="evenodd" d="M19.6488 84.527H107.216C110.844 84.527 113.784 87.4674 113.784 91.0946V98.3919C113.784 102.019 110.844 104.959 107.216 104.959H19.6488C16.0217 104.959 13.0813 102.019 13.0813 98.3919V91.0946C13.0813 87.4674 16.0217 84.527 19.6488 84.527ZM19.6488 87.4459C17.6337 87.4459 16.0002 89.0795 16.0002 91.0946V98.3919C16.0002 100.407 17.6337 102.041 19.6488 102.041H107.216C109.231 102.041 110.865 100.407 110.865 98.3919V91.0946C110.865 89.0795 109.231 87.4459 107.216 87.4459H19.6488Z" fill="#999999"/>
</g>
<path d="M142.861 96V31.1777H168.736C181.898 31.1777 190.793 39.8477 190.793 52.8301V52.9199C190.793 65.8574 181.898 74.5723 168.736 74.5723H154.451V96H142.861ZM165.906 40.6562H154.451V65.2285H165.906C174.216 65.2285 179.068 60.7363 179.068 52.9648V52.875C179.068 45.1035 174.216 40.6562 165.906 40.6562ZM218.787 96.9883C204.052 96.9883 195.158 87.375 195.158 71.4727V71.3828C195.158 55.6152 204.187 45.957 218.787 45.957C233.431 45.957 242.416 55.5703 242.416 71.3828V71.4727C242.416 87.375 233.476 96.9883 218.787 96.9883ZM218.787 87.9141C226.558 87.9141 230.961 81.8496 230.961 71.5176V71.4277C230.961 61.0957 226.513 54.9863 218.787 54.9863C211.015 54.9863 206.568 61.0957 206.568 71.4277V71.5176C206.568 81.8496 211.015 87.9141 218.787 87.9141ZM250.15 96V46.9004H261.336V54.4473H262.099C263.762 49.1914 268.254 46.0918 274.722 46.0918C276.43 46.0918 278.181 46.3164 279.26 46.6309V56.6484C277.463 56.2891 275.621 56.0195 273.689 56.0195C266.232 56.0195 261.336 60.4668 261.336 67.4746V96H250.15ZM305.322 96.2246C294.047 96.2246 289.42 92.4512 289.42 82.9727V55.5703H281.783V46.9004H289.42V34.8613H300.785V46.9004H311.162V55.5703H300.785V80.3223C300.785 85.2188 302.717 87.2852 307.389 87.2852C308.961 87.2852 309.814 87.2402 311.162 87.1055V95.7305C309.545 96.0449 307.478 96.2246 305.322 96.2246ZM339.561 96.9883C324.826 96.9883 315.932 87.375 315.932 71.4727V71.3828C315.932 55.6152 324.961 45.957 339.561 45.957C354.205 45.957 363.189 55.5703 363.189 71.3828V71.4727C363.189 87.375 354.25 96.9883 339.561 96.9883ZM339.561 87.9141C347.332 87.9141 351.734 81.8496 351.734 71.5176V71.4277C351.734 61.0957 347.287 54.9863 339.561 54.9863C331.789 54.9863 327.342 61.0957 327.342 71.4277V71.5176C327.342 81.8496 331.789 87.9141 339.561 87.9141Z" fill="white"/>
</svg>

<svg xmlns="http://www.w3.org/2000/svg" width="388" height="126" fill="none">
  <path fill="#999" fill-rule="evenodd"
    d="M22.568 23.96A6.57 6.57 0 0 0 16 30.527v67.865a3.65 3.65 0 0 0 3.649 3.649h87.567a3.65 3.65 0 0 0 3.649-3.65V30.528a6.57 6.57 0 0 0-6.568-6.568zm71.878 6.567a9.122 9.122 0 0 0 0 18.243h.73a9.12 9.12 0 0 0 9.121-9.121 9.12 9.12 0 0 0-9.121-9.122z"
    clip-rule="evenodd" />
  <mask id="a" width="95" height="80" x="16" y="23" maskUnits="userSpaceOnUse" style="mask-type:alpha">
    <path fill="#fff" fill-rule="evenodd"
      d="M22.568 23.96A6.57 6.57 0 0 0 16 30.527v67.865a3.65 3.65 0 0 0 3.649 3.649h87.567a3.65 3.65 0 0 0 3.649-3.65V30.528a6.57 6.57 0 0 0-6.568-6.568zm71.878 6.567a9.122 9.122 0 0 0 0 18.243h.73a9.12 9.12 0 0 0 9.121-9.121 9.12 9.12 0 0 0-9.121-9.122z"
      clip-rule="evenodd" />
  </mask>
  <g mask="url(#a)">
    <path fill="#CBCBCB"
      d="M16 60.446a3.65 3.65 0 0 1 3.649-3.649h87.567a3.65 3.65 0 0 1 3.649 3.649v37.946a3.65 3.65 0 0 1-3.649 3.649H19.649A3.65 3.65 0 0 1 16 98.391z" />
    <path fill="#999" fill-rule="evenodd"
      d="M19.649 53.878h87.567a6.567 6.567 0 0 1 6.568 6.568v37.946a6.567 6.567 0 0 1-6.568 6.567H19.649a6.567 6.567 0 0 1-6.568-6.567V60.446a6.57 6.57 0 0 1 6.568-6.568m0 2.92A3.65 3.65 0 0 0 16 60.445v37.946a3.65 3.65 0 0 0 3.649 3.649h87.567a3.65 3.65 0 0 0 3.649-3.65V60.447a3.65 3.65 0 0 0-3.649-3.649z"
      clip-rule="evenodd" />
    <path fill="#DDD"
      d="M16 75.77a3.65 3.65 0 0 1 3.649-3.648h87.567a3.65 3.65 0 0 1 3.649 3.648v22.622a3.65 3.65 0 0 1-3.649 3.649H19.649A3.65 3.65 0 0 1 16 98.391z" />
    <path fill="#999" fill-rule="evenodd"
      d="M19.649 69.203h87.567a6.567 6.567 0 0 1 6.568 6.567v22.622a6.567 6.567 0 0 1-6.568 6.567H19.649a6.567 6.567 0 0 1-6.568-6.567V75.77a6.57 6.57 0 0 1 6.568-6.567m0 2.919A3.65 3.65 0 0 0 16 75.77v22.622a3.65 3.65 0 0 0 3.649 3.649h87.567a3.65 3.65 0 0 0 3.649-3.65v-22.62a3.65 3.65 0 0 0-3.649-3.65z"
      clip-rule="evenodd" />
    <path fill="#fff"
      d="M16 91.095a3.65 3.65 0 0 1 3.649-3.65h87.567a3.65 3.65 0 0 1 3.649 3.65v7.297a3.65 3.65 0 0 1-3.649 3.649H19.649A3.65 3.65 0 0 1 16 98.391z" />
    <path fill="#999" fill-rule="evenodd"
      d="M19.649 84.527h87.567a6.567 6.567 0 0 1 6.568 6.568v7.297a6.567 6.567 0 0 1-6.568 6.567H19.649a6.567 6.567 0 0 1-6.568-6.567v-7.297a6.57 6.57 0 0 1 6.568-6.568m0 2.919A3.65 3.65 0 0 0 16 91.095v7.297a3.65 3.65 0 0 0 3.649 3.649h87.567a3.65 3.65 0 0 0 3.649-3.65v-7.296a3.65 3.65 0 0 0-3.649-3.65z"
      clip-rule="evenodd" />
  </g>
  <path fill="#fff"
    d="M142.861 96V31.178h25.875c13.162 0 22.057 8.67 22.057 21.652v.09c0 12.937-8.895 21.652-22.057 21.652h-14.285V96zm23.045-55.344h-11.455v24.572h11.455c8.31 0 13.162-4.492 13.162-12.263v-.09c0-7.772-4.852-12.219-13.162-12.219m52.881 56.332c-14.735 0-23.629-9.613-23.629-25.515v-.09c0-15.768 9.029-25.426 23.629-25.426 14.644 0 23.629 9.613 23.629 25.426v.09c0 15.902-8.94 25.515-23.629 25.515m0-9.074c7.771 0 12.174-6.064 12.174-16.396v-.09c0-10.332-4.448-16.442-12.174-16.442-7.772 0-12.219 6.11-12.219 16.442v.09c0 10.332 4.447 16.396 12.219 16.396M250.15 96V46.9h11.186v7.547h.763c1.663-5.256 6.155-8.355 12.623-8.355 1.708 0 3.459.224 4.538.539v10.017c-1.797-.359-3.639-.629-5.571-.629-7.457 0-12.353 4.448-12.353 11.456V96zm55.172.225c-11.275 0-15.902-3.774-15.902-13.252V55.57h-7.637V46.9h7.637V34.861h11.365v12.04h10.377v8.67h-10.377v24.751c0 4.897 1.932 6.963 6.604 6.963 1.572 0 2.425-.045 3.773-.18v8.626c-1.617.314-3.684.494-5.84.494m34.239.763c-14.735 0-23.629-9.613-23.629-25.515v-.09c0-15.768 9.029-25.426 23.629-25.426 14.644 0 23.628 9.613 23.628 25.426v.09c0 15.902-8.939 25.515-23.628 25.515m0-9.074c7.771 0 12.173-6.064 12.173-16.396v-.09c0-10.332-4.447-16.442-12.173-16.442-7.772 0-12.219 6.11-12.219 16.442v.09c0 10.332 4.447 16.396 12.219 16.396" />
</svg>
